apps/scalable/mintinstall.svg

<svg xmlns="http://www.w3.org/2000/svg" style="isolation:isolate" width="256" height="256"><defs><filter id="a" width="270.648" height="254.338" x="-7.32" y="2.95" filterUnits="userSpaceOnUse"><feGaussianBlur xmlns="http://www.w3.org/2000/svg" in="SourceGraphic" stdDeviation="4.294"/><feOffset xmlns="http://www.w3.org/2000/svg" dy="4" result="pf_100_offsetBlur"/><feFlood xmlns="http://www.w3.org/2000/svg" flood-opacity=".4"/><feComposite xmlns="http://www.w3.org/2000/svg" in2="pf_100_offsetBlur" operator="in" result="pf_100_dropShadow"/><feBlend xmlns="http://www.w3.org/2000/svg" in="SourceGraphic" in2="pf_100_dropShadow"/></filter></defs><path fill="#D9C813" d="M165.685 11.947c74.055 0 84.639 10.557 84.639 84.544v59.251c0 73.986-10.584 84.543-84.639 84.543h-75.37c-74.055 0-84.639-10.557-84.639-84.543V96.491c0-73.987 10.584-84.544 84.639-84.544h75.37z" filter="url(#a)"/><defs><filter id="b" width="270.648" height="254.338" x="-7.32" y="2.95" filterUnits="userSpaceOnUse"><feGaussianBlur xmlns="http://www.w3.org/2000/svg" in="SourceGraphic" stdDeviation="4.294"/><feOffset xmlns="http://www.w3.org/2000/svg" dy="4" result="pf_100_offsetBlur"/><feFlood xmlns="http://www.w3.org/2000/svg" flood-opacity=".4"/><feComposite xmlns="http://www.w3.org/2000/svg" in2="pf_100_offsetBlur" operator="in" result="pf_100_dropShadow"/><feBlend xmlns="http://www.w3.org/2000/svg" in="SourceGraphic" in2="pf_100_dropShadow"/></filter></defs><g filter="url(#b)"><linearGradient id="c" x1=".736" x2=".267" y1="1.075" y2=".005" gradientTransform="matrix(244.648 0 0 228.338 5.676 11.947)" gradientUnits="userSpaceOnUse"><stop offset="0%" stop-color="#c7f994"/><stop offset="100%" stop-color="#87cf3e"/></linearGradient><path fill="url(#c)" d="M165.685 11.947c74.055 0 84.639 10.557 84.639 84.544v59.251c0 73.986-10.584 84.543-84.639 84.543h-75.37c-74.055 0-84.639-10.557-84.639-84.543V96.491c0-73.987 10.584-84.544 84.639-84.544h75.37z"/></g><g opacity=".4"><linearGradient id="d" x1=".517" x2=".517" y2="1"><stop offset="0%" stop-color="#fff"/><stop offset="12.5%" stop-opacity=".098" stop-color="#fff"/><stop offset="92.5%" stop-opacity=".098"/><stop offset="100%" stop-opacity=".498"/></linearGradient><path fill="none" stroke="url(#d)" stroke-linecap="round" stroke-linejoin="round" stroke-width="4.077" d="M165.685 11.947c74.055 0 84.639 10.557 84.639 84.544v59.251c0 73.986-10.584 84.543-84.639 84.543h-75.37c-74.055 0-84.639-10.557-84.639-84.543V96.491c0-73.987 10.584-84.544 84.639-84.544h75.37z" vector-effect="non-scaling-stroke"/></g><defs><filter id="e" width="144.757" height="147.916" x="55.9" y="54.15" filterUnits="userSpaceOnUse"><feGaussianBlur xmlns="http://www.w3.org/2000/svg" stdDeviation=".673"/></filter></defs><path d="M115.753 55.717a817.592 817.592 0 0 0-14.415 31.757 1446.57 1446.57 0 0 0-14 33.428 2227.042 2227.042 0 0 0-14.205 37.187 4084.475 4084.475 0 0 0-15.67 42.411h27.488l13.162-36.98 70.89-2.715a3698.963 3698.963 0 0 0 6.895 19.221 2269.13 2269.13 0 0 0 7.52 20.474h15.67a15423.07 15423.07 0 0 1-15.878-41.993c-4.874-13.092-9.679-25.419-14.415-36.979a1186.529 1186.529 0 0 0-13.79-33.636 821.148 821.148 0 0 0-14.623-32.175H115.753zm17.942 16.298a1251.18 1251.18 0 0 1 15.461 36.559c5.015 12.396 10.167 25.767 15.46 40.113l-60.652-1.88a1611.33 1611.33 0 0 1 12.954-35.097A561.747 561.747 0 0 1 128 85.297v-.162c1.882-4.398 3.776-8.777 5.695-13.12z" opacity=".1" filter="url(#e)"/><defs><filter id="f" width="172.954" height="176.112" x="41.8" y="40.05" filterUnits="userSpaceOnUse"><feGaussianBlur xmlns="http://www.w3.org/2000/svg" stdDeviation="6.726"/></filter></defs><g opacity=".4" filter="url(#f)"><linearGradient id="g" x1=".979" x2=".979" y1="-.015" y2="1.044" gradientTransform="matrix(141.624 0 0 144.783 57.463 55.717)" gradientUnits="userSpaceOnUse"><stop offset="0%" stop-opacity="0"/><stop offset="64.067%"/><stop offset="100%" stop-opacity="0"/></linearGradient><path fill="url(#g)" d="M115.753 55.717a817.592 817.592 0 0 0-14.415 31.757 1446.57 1446.57 0 0 0-14 33.428 2227.042 2227.042 0 0 0-14.205 37.187 4084.475 4084.475 0 0 0-15.67 42.411h27.488l13.162-36.98 70.89-2.715a3698.963 3698.963 0 0 0 6.895 19.221 2269.13 2269.13 0 0 0 7.52 20.474h15.67a15423.07 15423.07 0 0 1-15.878-41.993c-4.874-13.092-9.679-25.419-14.415-36.979a1186.529 1186.529 0 0 0-13.79-33.636 821.148 821.148 0 0 0-14.623-32.175H115.753zm17.942 16.298a1251.18 1251.18 0 0 1 15.461 36.559c5.015 12.396 10.167 25.767 15.46 40.113l-60.652-1.88a1611.33 1611.33 0 0 1 12.954-35.097A561.747 561.747 0 0 1 128 85.297v-.162c1.882-4.398 3.776-8.777 5.695-13.12z"/></g><path fill="#FFF9F2" d="M115.753 53.588a817.592 817.592 0 0 0-14.415 31.757 1446.57 1446.57 0 0 0-14 33.428 2223.692 2223.692 0 0 0-14.205 37.187 4075.988 4075.988 0 0 0-15.67 42.411h27.488l13.162-36.98 70.89-2.715a3699.127 3699.127 0 0 0 6.895 19.22 2257.87 2257.87 0 0 0 7.52 20.475h15.67a15549.477 15549.477 0 0 1-15.878-41.993c-4.874-13.092-9.679-25.419-14.415-36.979a1186.529 1186.529 0 0 0-13.79-33.636 821.148 821.148 0 0 0-14.623-32.175H115.753zm17.942 16.297a1252.41 1252.41 0 0 1 15.461 36.56c5.015 12.396 10.167 25.767 15.46 40.113l-60.652-1.88a1613.381 1613.381 0 0 1 12.954-35.098A562.15 562.15 0 0 1 128 83.168v-.163c1.882-4.397 3.776-8.777 5.695-13.12z"/><path fill="#4C7523" d="M140.382 53.588l-6.687 16.297 2.822 6.454a1257.97 1257.97 0 0 1 12.639 30.106c5.015 12.396 10.167 25.767 15.46 40.113l15.166.713a1185.317 1185.317 0 0 0-10.987-27.872 1186.529 1186.529 0 0 0-13.79-33.636 821.148 821.148 0 0 0-14.623-32.175zm-3.865 103.644l32.486 1.444a3699.127 3699.127 0 0 0 6.895 19.22 2257.87 2257.87 0 0 0 7.52 20.475h15.67a15549.477 15549.477 0 0 1-15.878-41.993c-.074-.2-.148-.391-.222-.59l-46.471 1.444z" opacity=".1"/><defs><filter id="h" width="146.646" height="27.413" x="54.68" y="139.95" filterUnits="userSpaceOnUse"><feGaussianBlur xmlns="http://www.w3.org/2000/svg" stdDeviation=".4"/></filter></defs><path d="M68.384 140.884h119.232c7.051 0 12.775 5.724 12.775 12.775 0 7.05-5.724 12.775-12.775 12.775H68.384c-7.051 0-12.775-5.725-12.775-12.775 0-7.051 5.724-12.775 12.775-12.775z" opacity=".1" filter="url(#h)"/><path fill="#FFF" d="M68.384 138.754h119.232c7.051 0 12.775 5.725 12.775 12.775 0 7.051-5.724 12.775-12.775 12.775H68.384c-7.051 0-12.775-5.724-12.775-12.775 0-7.05 5.724-12.775 12.775-12.775z"/><path fill="#4C7523" d="M111.3 147.271h76.65a4.26 4.26 0 0 1 4.258 4.258 4.26 4.26 0 0 1-4.258 4.259H111.3a4.26 4.26 0 0 1-4.258-4.259 4.26 4.26 0 0 1 4.258-4.258z" opacity=".2"/><path fill="#4C7523" d="M68.384 147.271h76.649a4.26 4.26 0 0 1 4.259 4.258 4.261 4.261 0 0 1-4.259 4.259H68.384a4.26 4.26 0 0 1-4.259-4.259 4.26 4.26 0 0 1 4.259-4.258z"/></svg>

<svg xmlns="http://www.w3.org/2000/svg" style="isolation:isolate" width="256" height="256" viewBox="0 0 256 256">
 <defs>
  <filter id="wqzFazrf8PHfirxqFGM3qLCXY9UU7nzV" width="270.648" height="254.338" x="-7.32" y="2.95" filterUnits="userSpaceOnUse">
   <feGaussianBlur xmlns="http://www.w3.org/2000/svg" in="SourceGraphic" stdDeviation="4.294"/>
   <feOffset xmlns="http://www.w3.org/2000/svg" dx="0" dy="4" result="pf_100_offsetBlur"/>
   <feFlood xmlns="http://www.w3.org/2000/svg" flood-opacity=".4"/>
   <feComposite xmlns="http://www.w3.org/2000/svg" in2="pf_100_offsetBlur" operator="in" result="pf_100_dropShadow"/>
   <feBlend xmlns="http://www.w3.org/2000/svg" in="SourceGraphic" in2="pf_100_dropShadow" mode="normal"/>
  </filter>
 </defs>
 <g filter="url(#wqzFazrf8PHfirxqFGM3qLCXY9UU7nzV)">
  <path fill="#D9C813" d="M 165.685 11.947 C 239.74 11.947 250.324 22.504 250.324 96.491 L 250.324 155.742 C 250.324 229.728 239.74 240.285 165.685 240.285 L 90.315 240.285 C 16.26 240.285 5.676 229.728 5.676 155.742 L 5.676 96.491 C 5.676 22.504 16.26 11.947 90.315 11.947 L 165.685 11.947 Z"/>
 </g>
 <defs>
  <filter id="BCCTZILKTlkjLfUV6NiigTfxEcATPGbG" width="270.648" height="254.338" x="-7.32" y="2.95" filterUnits="userSpaceOnUse">
   <feGaussianBlur xmlns="http://www.w3.org/2000/svg" in="SourceGraphic" stdDeviation="4.294"/>
   <feOffset xmlns="http://www.w3.org/2000/svg" dx="0" dy="4" result="pf_100_offsetBlur"/>
   <feFlood xmlns="http://www.w3.org/2000/svg" flood-opacity=".4"/>
   <feComposite xmlns="http://www.w3.org/2000/svg" in2="pf_100_offsetBlur" operator="in" result="pf_100_dropShadow"/>
   <feBlend xmlns="http://www.w3.org/2000/svg" in="SourceGraphic" in2="pf_100_dropShadow" mode="normal"/>
  </filter>
 </defs>
 <g filter="url(#BCCTZILKTlkjLfUV6NiigTfxEcATPGbG)">
  <linearGradient id="_lgradient_38" x1=".736" x2=".267" y1="1.075" y2=".005" gradientTransform="matrix(244.648,0,0,228.338,5.676,11.947)" gradientUnits="userSpaceOnUse">
   <stop offset="0%" style="stop-color:rgb(199,249,148)"/>
   <stop offset="100%" style="stop-color:rgb(135,207,62)"/>
  </linearGradient>
  <path fill="url(#_lgradient_38)" d="M 165.685 11.947 C 239.74 11.947 250.324 22.504 250.324 96.491 L 250.324 155.742 C 250.324 229.728 239.74 240.285 165.685 240.285 L 90.315 240.285 C 16.26 240.285 5.676 229.728 5.676 155.742 L 5.676 96.491 C 5.676 22.504 16.26 11.947 90.315 11.947 L 165.685 11.947 Z"/>
 </g>
 <g opacity=".4">
  <linearGradient id="_lgradient_39" x1=".517" x2=".517" y1="0" y2="1">
   <stop offset="0%" style="stop-color:rgb(255,255,255)"/>
   <stop offset="12.5%" stop-opacity=".098" style="stop-color:rgb(255,255,255)"/>
   <stop offset="92.5%" stop-opacity=".098" style="stop-color:rgb(0,0,0)"/>
   <stop offset="100%" stop-opacity=".498" style="stop-color:rgb(0,0,0)"/>
  </linearGradient>
  <path fill="none" stroke="url(#_lgradient_39)" stroke-linecap="round" stroke-linejoin="round" stroke-width="4.077" d="M 165.685 11.947 C 239.74 11.947 250.324 22.504 250.324 96.491 L 250.324 155.742 C 250.324 229.728 239.74 240.285 165.685 240.285 L 90.315 240.285 C 16.26 240.285 5.676 229.728 5.676 155.742 L 5.676 96.491 C 5.676 22.504 16.26 11.947 90.315 11.947 L 165.685 11.947 Z" vector-effect="non-scaling-stroke"/>
 </g>
 <g>
  <defs>
   <filter id="4sS126DW1dy59qsTOKhaJ3yLd2v1mRGQ" width="144.757" height="147.916" x="55.9" y="54.15" filterUnits="userSpaceOnUse">
    <feGaussianBlur xmlns="http://www.w3.org/2000/svg" stdDeviation=".673"/>
   </filter>
  </defs>
  <g opacity=".1" filter="url(#4sS126DW1dy59qsTOKhaJ3yLd2v1mRGQ)">
   <path d="M 115.753 55.717 C 110.739 66.163 105.934 76.749 101.338 87.474 C 96.741 98.059 92.074 109.202 87.338 120.902 C 82.742 132.602 78.007 144.997 73.133 158.089 C 68.258 171.043 63.035 185.179 57.463 200.5 L 84.951 200.5 L 98.113 163.52 L 169.003 160.805 C 171.231 167.073 173.53 173.479 175.898 180.026 C 178.265 186.572 180.772 193.397 183.418 200.5 L 199.088 200.5 C 193.377 185.458 188.085 171.461 183.21 158.507 C 178.336 145.415 173.531 133.088 168.795 121.528 C 164.199 109.828 159.602 98.616 155.005 87.892 C 150.409 77.167 145.535 66.442 140.382 55.717 L 128 55.717 L 115.753 55.717 Z M 133.695 72.015 C 138.988 83.993 144.142 96.178 149.156 108.574 C 154.171 120.97 159.323 134.341 164.616 148.687 L 103.964 146.807 C 108.282 134.69 112.6 122.991 116.918 111.71 C 120.476 102.59 124.175 93.795 128 85.297 L 128 85.135 C 129.882 80.737 131.776 76.358 133.695 72.015 L 133.695 72.015 Z"/>
  </g>
  <defs>
   <filter id="KHMLCqKegRHiWaja3gP2OQD6qLat8Fat" width="172.954" height="176.112" x="41.8" y="40.05" filterUnits="userSpaceOnUse">
    <feGaussianBlur xmlns="http://www.w3.org/2000/svg" stdDeviation="6.726"/>
   </filter>
  </defs>
  <g opacity=".4" filter="url(#KHMLCqKegRHiWaja3gP2OQD6qLat8Fat)">
   <linearGradient id="_lgradient_40" x1=".979" x2=".979" y1="-.015" y2="1.044" gradientTransform="matrix(141.624,0,0,144.783,57.463,55.717)" gradientUnits="userSpaceOnUse">
    <stop offset="0%" stop-opacity="0" style="stop-color:rgb(0,0,0)"/>
    <stop offset="64.067%" style="stop-color:rgb(0,0,0)"/>
    <stop offset="100%" stop-opacity="0" style="stop-color:rgb(0,0,0)"/>
   </linearGradient>
   <path fill="url(#_lgradient_40)" d="M 115.753 55.717 C 110.739 66.163 105.934 76.749 101.338 87.474 C 96.741 98.059 92.074 109.202 87.338 120.902 C 82.742 132.602 78.007 144.997 73.133 158.089 C 68.258 171.043 63.035 185.179 57.463 200.5 L 84.951 200.5 L 98.113 163.52 L 169.003 160.805 C 171.231 167.073 173.53 173.479 175.898 180.026 C 178.265 186.572 180.772 193.397 183.418 200.5 L 199.088 200.5 C 193.377 185.458 188.085 171.461 183.21 158.507 C 178.336 145.415 173.531 133.088 168.795 121.528 C 164.199 109.828 159.602 98.616 155.005 87.892 C 150.409 77.167 145.535 66.442 140.382 55.717 L 128 55.717 L 115.753 55.717 Z M 133.695 72.015 C 138.988 83.993 144.142 96.178 149.156 108.574 C 154.171 120.97 159.323 134.341 164.616 148.687 L 103.964 146.807 C 108.282 134.69 112.6 122.991 116.918 111.71 C 120.476 102.59 124.175 93.795 128 85.297 L 128 85.135 C 129.882 80.737 131.776 76.358 133.695 72.015 L 133.695 72.015 Z"/>
  </g>
  <path fill="#FFF9F2" d="M 115.753 53.588 C 110.739 64.034 105.934 74.62 101.338 85.345 C 96.741 95.93 92.074 107.073 87.338 118.773 C 82.742 130.472 78.007 142.868 73.133 155.96 C 68.258 168.913 63.035 183.05 57.463 198.371 L 84.951 198.371 L 98.113 161.391 L 169.003 158.676 C 171.231 164.943 173.53 171.35 175.898 177.896 C 178.265 184.443 180.772 191.268 183.418 198.371 L 199.088 198.371 C 193.377 183.329 188.085 169.331 183.21 156.378 C 178.336 143.286 173.531 130.959 168.795 119.399 C 164.199 107.699 159.602 96.487 155.005 85.763 C 150.409 75.038 145.535 64.313 140.382 53.588 L 128 53.588 L 115.753 53.588 Z M 133.695 69.885 C 138.988 81.864 144.142 94.049 149.156 106.445 C 154.171 118.841 159.323 132.212 164.616 146.558 L 103.964 144.678 C 108.282 132.561 112.6 120.862 116.918 109.58 C 120.476 100.461 124.175 91.666 128 83.168 L 128 83.005 C 129.882 78.608 131.776 74.228 133.695 69.885 L 133.695 69.885 Z"/>
  <g opacity=".1">
   <path fill="#4C7523" d="M 140.382 53.588 L 133.695 69.885 L 136.517 76.339 C 140.822 86.236 145.039 96.266 149.156 106.445 C 154.171 118.841 159.323 132.212 164.616 146.558 L 164.616 146.558 L 179.782 147.271 C 176.079 137.535 172.416 128.239 168.795 119.399 C 164.199 107.699 159.602 96.487 155.005 85.763 C 150.409 75.038 145.535 64.313 140.382 53.588 L 140.382 53.588 Z M 136.517 157.232 L 169.003 158.676 C 171.231 164.943 173.53 171.35 175.898 177.896 C 178.265 184.443 180.772 191.268 183.418 198.371 L 199.088 198.371 C 193.377 183.329 188.085 169.331 183.21 156.378 C 183.136 156.178 183.062 155.987 182.988 155.788 L 136.517 157.232 Z"/>
  </g>
  <defs>
   <filter id="2aqUxfSgDIlrQLtmjTPo0xS9eRjZlvvv" width="146.646" height="27.413" x="54.68" y="139.95" filterUnits="userSpaceOnUse">
    <feGaussianBlur xmlns="http://www.w3.org/2000/svg" stdDeviation=".4"/>
   </filter>
  </defs>
  <g opacity=".1" filter="url(#2aqUxfSgDIlrQLtmjTPo0xS9eRjZlvvv)">
   <path d="M 68.384 140.884 L 187.616 140.884 C 194.667 140.884 200.391 146.608 200.391 153.659 L 200.391 153.659 C 200.391 160.709 194.667 166.434 187.616 166.434 L 68.384 166.434 C 61.333 166.434 55.609 160.709 55.609 153.659 L 55.609 153.659 C 55.609 146.608 61.333 140.884 68.384 140.884 Z"/>
  </g>
  <path fill="#FFFFFF" d="M 68.384 138.754 L 187.616 138.754 C 194.667 138.754 200.391 144.479 200.391 151.529 L 200.391 151.529 C 200.391 158.58 194.667 164.304 187.616 164.304 L 68.384 164.304 C 61.333 164.304 55.609 158.58 55.609 151.529 L 55.609 151.529 C 55.609 144.479 61.333 138.754 68.384 138.754 Z"/>
  <g opacity=".2">
   <path fill="#4C7523" d="M 111.3 147.271 L 187.95 147.271 C 190.3 147.271 192.208 149.179 192.208 151.529 L 192.208 151.529 C 192.208 153.88 190.3 155.788 187.95 155.788 L 111.3 155.788 C 108.95 155.788 107.042 153.88 107.042 151.529 L 107.042 151.529 C 107.042 149.179 108.95 147.271 111.3 147.271 Z"/>
  </g>
  <path fill="#4C7523" d="M 68.384 147.271 L 145.033 147.271 C 147.383 147.271 149.292 149.179 149.292 151.529 L 149.292 151.529 C 149.292 153.88 147.383 155.788 145.033 155.788 L 68.384 155.788 C 66.033 155.788 64.125 153.88 64.125 151.529 L 64.125 151.529 C 64.125 149.179 66.033 147.271 68.384 147.271 Z"/>
 </g>
</svg>
